source/img/sprite/moon.svg

<svg width="12" height="12" viewBox="0 0 12 12" fill="none" xmlns="http://www.w3.org/2000/svg">
<g clip-path="url(#clip0_1101_151)">
<path d="M11.1966 6.75379C11.0851 6.72581 10.9736 6.75379 10.876 6.82374C10.5135 7.13153 10.0953 7.38335 9.6352 7.55123C9.20301 7.71912 8.72901 7.80306 8.22712 7.80306C7.09786 7.80306 6.0662 7.34138 5.32731 6.5999C4.58841 5.85842 4.12835 4.82314 4.12835 3.68994C4.12835 3.21427 4.212 2.75259 4.35141 2.33289C4.50477 1.8852 4.72783 1.47949 5.0206 1.12973C5.14607 0.975839 5.11819 0.751995 4.96483 0.626083C4.86724 0.556132 4.75571 0.528152 4.64418 0.556132C3.45916 0.877907 2.4275 1.59141 1.6886 2.54274C0.977593 3.48008 0.54541 4.64127 0.54541 5.91438C0.54541 7.43931 1.15883 8.82434 2.16261 9.83164C3.16639 10.8389 4.54659 11.4545 6.0662 11.4545C7.34881 11.4545 8.53383 11.0068 9.48184 10.2653C10.4438 9.50986 11.1409 8.43262 11.4336 7.20148C11.5033 6.99163 11.3918 6.79576 11.1966 6.75379ZM9.0636 9.67774C8.255 10.3213 7.22334 10.713 6.09408 10.713C4.76965 10.713 3.57069 10.1674 2.70633 9.30001C1.84196 8.43262 1.29825 7.22946 1.29825 5.90039C1.29825 4.79516 1.66072 3.78787 2.28808 2.97644C2.72027 2.41683 3.26398 1.95515 3.89134 1.63338C3.82164 1.78727 3.75193 1.94116 3.69617 2.10904C3.51493 2.61269 3.43128 3.14432 3.43128 3.70393C3.43128 5.033 3.97499 6.25015 4.83936 7.11754C5.70373 7.98493 6.91663 8.53055 8.24106 8.53055C8.8266 8.53055 9.38425 8.43262 9.90008 8.23675C10.0813 8.1668 10.2626 8.09685 10.4299 8.01291C10.0953 8.65646 9.6352 9.23006 9.0636 9.67774Z" fill="currentColor"/>
</g>
<defs>
<clipPath id="clip0_1101_151">
<rect width="12" height="12" fill="currentColor"/>
</clipPath>
</defs>
</svg>

<svg xmlns="http://www.w3.org/2000/svg" width="12" height="12" fill="none">
  <g clip-path="url(#a)">
    <path fill="#fff" d="M11.197 6.754a.382.382 0 0 0-.321.07c-.362.308-.78.56-1.24.727a3.874 3.874 0 0 1-1.409.252c-1.13 0-2.16-.462-2.9-1.203a4.121 4.121 0 0 1-1.199-2.91c0-.476.084-.937.223-1.357a3.76 3.76 0 0 1 .67-1.203.358.358 0 0 0-.056-.504c-.098-.07-.21-.098-.32-.07a5.625 5.625 0 0 0-2.956 1.987 5.553 5.553 0 0 0 .474 7.289 5.49 5.49 0 0 0 3.903 1.622 5.532 5.532 0 0 0 3.416-1.189 5.518 5.518 0 0 0 1.952-3.063c.07-.21-.042-.406-.237-.448ZM9.064 9.678A4.776 4.776 0 0 1 2.707 9.3a4.81 4.81 0 0 1-1.409-3.4c0-1.105.363-2.112.99-2.924a4.797 4.797 0 0 1 1.603-1.343 4.67 4.67 0 0 0-.46 2.07c0 1.33.544 2.547 1.408 3.415A4.808 4.808 0 0 0 8.241 8.53c.586 0 1.143-.098 1.66-.294.18-.07.362-.14.529-.224a5.086 5.086 0 0 1-1.366 1.665Z"/>
  </g>
  <defs>
    <clipPath id="a">
      <path fill="#fff" d="M0 0h12v12H0z"/>
    </clipPath>
  </defs>
</svg>
